lesson_7/img/4.svg

<svg width="33" height="32" viewBox="0 0 33 32" fill="none" xmlns="http://www.w3.org/2000/svg">
<path d="M32.1883 0H0.737671V32H32.1883V0Z" fill="white"/>
<g clip-path="url(#clip0_4203_175)">
<path d="M16.1368 12.6816C14.0217 12.6816 12.3156 14.3849 12.3156 16.4966C12.3156 18.6083 14.0217 20.3117 16.1368 20.3117C18.2519 20.3117 19.958 18.6083 19.958 16.4966C19.958 14.3849 18.2519 12.6816 16.1368 12.6816ZM16.1368 18.9769C14.7699 18.9769 13.6525 17.8646 13.6525 16.4966C13.6525 15.1287 14.7666 14.0164 16.1368 14.0164C17.507 14.0164 18.6211 15.1287 18.6211 16.4966C18.6211 17.8646 17.5037 18.9769 16.1368 18.9769ZM21.0056 12.5255C21.0056 13.0203 20.6065 13.4154 20.1143 13.4154C19.6188 13.4154 19.223 13.0169 19.223 12.5255C19.223 12.0341 19.6221 11.6357 20.1143 11.6357C20.6065 11.6357 21.0056 12.0341 21.0056 12.5255ZM23.5365 13.4287C23.4799 12.2367 23.2072 11.1808 22.3326 10.3109C21.4612 9.44097 20.4037 9.1687 19.2097 9.10894C17.9792 9.03921 14.291 9.03921 13.0605 9.10894C11.8699 9.16538 10.8124 9.43765 9.93771 10.3076C9.06305 11.1775 8.79367 12.2333 8.73381 13.4253C8.66397 14.6539 8.66397 18.3361 8.73381 19.5646C8.79034 20.7566 9.06305 21.8124 9.93771 22.6824C10.8124 23.5523 11.8666 23.8246 13.0605 23.8843C14.291 23.9541 17.9792 23.9541 19.2097 23.8843C20.4037 23.8279 21.4612 23.5556 22.3326 22.6824C23.2039 21.8124 23.4766 20.7566 23.5365 19.5646C23.6063 18.3361 23.6063 14.6572 23.5365 13.4287ZM21.9468 20.8828C21.6874 21.5335 21.1852 22.0349 20.53 22.2972C19.549 22.6857 17.221 22.596 16.1368 22.596C15.0526 22.596 12.7213 22.6824 11.7436 22.2972C11.0917 22.0382 10.5895 21.5369 10.3268 20.8828C9.93771 19.9033 10.0275 17.5791 10.0275 16.4966C10.0275 15.4142 9.94103 13.0867 10.3268 12.1105C10.5862 11.4597 11.0884 10.9583 11.7436 10.696C12.7246 10.3076 15.0526 10.3972 16.1368 10.3972C17.221 10.3972 19.5523 10.3109 20.53 10.696C21.1819 10.955 21.6841 11.4564 21.9468 12.1105C22.3359 13.09 22.2461 15.4142 22.2461 16.4966C22.2461 17.5791 22.3359 19.9066 21.9468 20.8828Z" fill="black"/>
</g>
<defs>
<clipPath id="clip0_4203_175">
<rect width="14.8991" height="17" fill="white" transform="translate(8.68396 8)"/>
</clipPath>
</defs>
</svg>

<svg width="33" height="32" fill="none" xmlns="http://www.w3.org/2000/svg"><path d="M32.188 0H.738v32h31.45V0Z" fill="#fff"/><g clip-path="url(#a)"><path d="M16.137 12.682a3.812 3.812 0 0 0-3.821 3.815 3.812 3.812 0 0 0 3.82 3.815 3.812 3.812 0 0 0 3.822-3.815 3.812 3.812 0 0 0-3.821-3.815Zm0 6.295a2.487 2.487 0 0 1-2.485-2.48 2.485 2.485 0 0 1 4.97 0 2.487 2.487 0 0 1-2.485 2.48Zm4.869-6.452c0 .495-.4.89-.892.89a.89.89 0 1 1 .891-.89Zm2.53.904c-.056-1.192-.329-2.248-1.203-3.118-.872-.87-1.93-1.142-3.123-1.202-1.23-.07-4.919-.07-6.15 0-1.19.056-2.248.329-3.122 1.199-.875.87-1.144 1.925-1.204 3.117-.07 1.229-.07 4.911 0 6.14.056 1.192.33 2.247 1.204 3.117.874.87 1.929 1.143 3.122 1.202 1.231.07 4.92.07 6.15 0 1.194-.056 2.251-.328 3.123-1.202.87-.87 1.144-1.925 1.204-3.117.07-1.229.07-4.908 0-6.136Zm-1.59 7.454a2.513 2.513 0 0 1-1.416 1.414c-.981.389-3.309.299-4.393.299-1.084 0-3.416.086-4.393-.299a2.513 2.513 0 0 1-1.417-1.414c-.39-.98-.3-3.304-.3-4.386 0-1.083-.086-3.41.3-4.386.26-.651.761-1.153 1.417-1.415.98-.388 3.309-.299 4.393-.299 1.084 0 3.415-.086 4.393.299.652.259 1.154.76 1.417 1.415.389.979.3 3.303.3 4.386 0 1.082.089 3.41-.3 4.386Z" fill="#000"/></g><defs><clipPath id="a"><path fill="#fff" transform="translate(8.684 8)" d="M0 0h14.899v17H0z"/></clipPath></defs></svg>
